packages/flutter/assets/icons/wallet.svg

<?xml version="1.0" encoding="UTF-8"?>
<svg width="24px" height="24px" viewBox="0 0 24 24" version="1.1" xmlns="http://www.w3.org/2000/svg" xmlns:xlink="http://www.w3.org/1999/xlink">
    <title>habit</title>
    <g id="habit" stroke="none" stroke-width="1" fill="none" fill-rule="evenodd">
        <path d="M14.1276294,4.08660211 C14.3551881,3.93184071 14.6650306,3.99006126 14.8208911,4.21686855 L14.8208911,4.21686855 L17.764,8.5 L18,8.5000472 C19.1045695,8.5000472 20,9.3954777 20,10.5000472 L20,17.5000472 C20,18.6046167 19.1045695,19.5000472 18,19.5000472 L6,19.5000472 C4.8954305,19.5000472 4,18.6046167 4,17.5000472 L4,7.4336023 L4.002,7.434 L4.00548574,7.35078485 C4.08183488,6.31592499 4.9456382,5.5000472 6,5.5000472 L12.048,5.5 Z M4.9989225,9.23185906 L5,17.5000472 C5,18.012883 5.38604019,18.4355544 5.88337887,18.4933195 L6,18.5000472 L18,18.5000472 C18.5128358,18.5000472 18.9355072,18.114007 18.9932723,17.6166683 L19,17.5000472 L19,16 L16.5,16.0000472 C16.2545401,16.0000472 16.0503916,15.823172 16.0080557,15.5899228 L16,15.5000472 L16,12.5000472 C16,12.2239048 16.2238576,12.0000472 16.5,12.0000472 L16.5,12.0000472 L19,12 L19,10.5000472 C19,9.98721136 18.6139598,9.56454003 18.1166211,9.50677493 L18,9.5000472 L6,9.5000472 C5.635268,9.5000472 5.29333924,9.40241489 4.9989225,9.23185906 Z M19,13.0000472 L17,13.0000472 L17,15.0000472 L19,15.0000472 L19,13.0000472 Z M10.566,6.4990472 L6,6.5000472 C5.48716416,6.5000472 5.06449284,6.88608739 5.00672773,7.38342607 L5,7.5000472 C5,7.70216746 5.05996468,7.89028222 5.1630743,8.04757175 L5.5818481,8.26870612 C5.86785376,8.41969687 6.18618273,8.49906202 6.50953652,8.50003808 L7.651,8.499 L7.71881827,8.44519939 L9.957,6.922 L10.566,6.4990472 Z M14.278,5.1930472 L10.553,7.726 L9.644,8.358 L16.453,8.3580472 L14.278,5.1930472 Z" id="Path-10" fill="#303846"></path>
    </g>
</svg>

<svg xmlns="http://www.w3.org/2000/svg" width="24" height="24" viewBox="0 0 24 24"><path fill-rule="evenodd" d="M14.128 4.087a.5.5 0 0 1 .693.13L17.764 8.5H18a2 2 0 0 1 2 2v7a2 2 0 0 1-2 2H6a2 2 0 0 1-2-2V7.434h.002l.003-.083A2 2 0 0 1 6 5.5h6.048zm-9.13 5.145L5 17.5a1 1 0 0 0 .883.993L6 18.5h12a1 1 0 0 0 .993-.883L19 17.5V16h-2.5a.5.5 0 0 1-.492-.41L16 15.5v-3a.5.5 0 0 1 .5-.5H19v-1.5a1 1 0 0 0-.883-.993L18 9.5H6a1.99 1.99 0 0 1-1.001-.268zM19 13h-2v2h2v-2zm-8.434-6.501L6 6.5a1 1 0 0 0-.993.883L5 7.5a1 1 0 0 0 .163.548l.419.22a2 2 0 0 0 .928.232l1.141-.001.068-.054 2.238-1.523.609-.423zm3.712-1.306l-3.725 2.533-.909.632h6.809l-2.175-3.165z"/></svg>
